X:170
T: JETZT REISEN WIR ZUM THOR HINAUS
N: E0757
O: Europa, Mitteleuropa, Deutschland, Hessen, Frankfurt
R: Abschieds - Lied, Liebe
M: 6/8
L: 1/16
K: G
D2 | G4B2B4B2 | B4d2d2c2B2 | A6z4
G2 | G4B2B4B2 | B4d2d2c2
B2 | A4A2A4A2 | A3Bc2e2d2
c2 | B4B2d4d2 | G6z4

@@@ Tune index: 4483
